ion/planet-sharp.svg

<svg viewBox="0 0 512 512" xmlns="http://www.w3.org/2000/svg"><g><path d="M81 274.71C90.36 363 165.26 432 256 432v0c24.63.02 48.99-5.15 71.49-15.19 -40.3-16.53-84.05-38.17-127.77-63.36C157 328.86 115.84 301.5 81 274.71Z"/><path d="M492.72 339.51c-8.5-11.31-20-23.8-34-37h-.001c-2.68 11.63-6.36 23-11 34 28.72 29.5 33.2 45.34 32.17 48.45 -2 2.23-17.05 6.89-58.15-3.53q-8.83-2.24-19.32-5.46 -6.76-2.08-13.79-4.49v0 0c7.36-8.45 13.9-17.57 19.54-27.25 .17-.29.35-.58.52-.88v0c15.26-26.58 23.3-56.7 23.31-87.35v-.001c0-6.35-.33-12.69-1-19 -9.57-88.17-84.4-157-175-157v-.001c-38.45-.03-75.83 12.58-106.4 35.89l0 0c-18.54 14.1-34.11 31.71-45.83 51.84 -.16.29-.34.58-.51.87h0c-5.58 9.7-10.21 19.92-13.83 30.52q-5.59-4.87-10.79-9.67c-5.39-5-10.17-9.63-14.42-14 -29.57-30.26-33.09-45.61-32.16-48.45 2.16-2.43 18.1-6.54 58.13 3.55h-.001c7.22-9.53 15.25-18.41 24-26.56 -18.86-5.61-35.79-9.35-50.05-11 -30.73-3.52-50.84 2.53-59.79 18.01 -3.24 5.58-6.35 15.09-2.72 28.6 5.37 20.06 24.51 44.4 51.6 69.9 8.63 8.13 18.06 16.37 28.12 24.64 7.32 6 15 12.06 22.9 18.08q7.91 6 16.15 12 8.24 6 16.7 11.78c25.41 17.61 52.26 34.52 78.59 49.69q14.34 8.26 28.64 16t28.37 14.81c21.9 11 43.35 20.92 63.86 29.43q13.19 5.48 25.81 10.16c11.89 4.42 23.37 8.31 34.31 11.59l1.1.33c25.73 7.66 47.42 11.69 64.48 12h1.74c21.64 0 36.3-6.38 43.58-19 9.09-15.62 4.08-36.32-14.86-61.5Z"/></g></svg>

<svg xmlns="http://www.w3.org/2000/svg" width="512" height="512" viewBox="0 0 512 512"><path d="M81,274.71C90.36,363,165.26,432,256,432a174.91,174.91,0,0,0,71.49-15.19c-40.3-16.53-84.05-38.17-127.77-63.36C157,328.86,115.84,301.5,81,274.71Z"/><path d="M492.72,339.51c-8.5-11.31-20-23.8-34-37a205.25,205.25,0,0,1-11,34c28.72,29.5,33.2,45.34,32.17,48.45-2,2.23-17.05,6.89-58.15-3.53q-8.83-2.24-19.32-5.46-6.76-2.08-13.79-4.49h0a176.76,176.76,0,0,0,19.54-27.25c.17-.29.35-.58.52-.88A175.39,175.39,0,0,0,432,256,178.87,178.87,0,0,0,431,237C421.43,148.83,346.6,80,256,80A175.37,175.37,0,0,0,149.6,115.89a177.4,177.4,0,0,0-45.83,51.84c-.16.29-.34.58-.51.87a175.48,175.48,0,0,0-13.83,30.52q-5.59-4.87-10.79-9.67c-5.39-5-10.17-9.63-14.42-14C34.65,145.19,31.13,129.84,32.06,127c2.16-2.43,18.1-6.54,58.13,3.55a209.88,209.88,0,0,1,24-26.56c-18.86-5.61-35.79-9.35-50.05-11C33.41,89.47,13.3,95.52,4.35,111,1.11,116.58-2,126.09,1.63,139.6,7,159.66,26.14,184,53.23,209.5c8.63,8.13,18.06,16.37,28.12,24.64,7.32,6,15,12.06,22.9,18.08q7.91,6,16.15,12T137.1,276c25.41,17.61,52.26,34.52,78.59,49.69q14.34,8.26,28.64,16t28.37,14.81c21.9,11,43.35,20.92,63.86,29.43q13.19,5.48,25.81,10.16c11.89,4.42,23.37,8.31,34.31,11.59l1.1.33c25.73,7.66,47.42,11.69,64.48,12H464c21.64,0,36.3-6.38,43.58-19C516.67,385.39,511.66,364.69,492.72,339.51Z"/></svg>
